!!!COM: Palestrina, Giovanni Perluigi da
!!!OPR: Sine nomine (1599)
!!!OTL: Kyrie
**kern	**kern	**kern	**kern	**kern
*Ibass	*Itenor	*Icalto	*Icalto	*Icant
!Bassus	!Tenor	!Altus 2	!Altus 1	!Cantus
*clefF4	*clefGv2	*clefG2	*clefG2	*clefG2
*k[]	*k[]	*k[]	*k[]	*k[]
*A:aeo	*A:aeo	*A:aeo	*A:aeo	*A:aeo
*M4/2	*M4/2	*M4/2	*M4/2	*M4/2
=1	=1	=1	=1	=1
0r	0r	0r	1d	0r
.	.	.	1f	.
=2	=2	=2	=2	=2
0r	0r	0r	2e	0r
.	.	.	2d	.
.	.	.	2f	.
.	.	.	2g	.
=3	=3	=3	=3	=3
0r	1A	0r	2.a	0r
.	.	.	4g	.
.	1c	.	4e	.
.	.	.	4f	.
.	.	.	4g	.
.	.	.	4a	.
=4	=4	=4	=4	=4
0r	2B	0r	2b	0r
.	2A	.	2.cc	.
.	2c	.	.	.
.	.	.	4b	.
.	2d	.	[2a	.
=5	=5	=5	=5	=5
1r	1e	0r	2a]	0r
.	.	.	1g	.
1D	2.d	.	.	.
.	.	.	2f	.
.	4c	.	.	.
=6	=6	=6	=6	=6
1F	4A	0r	1a	0r
.	4B	.	.	.
.	4c	.	.	.
.	4d	.	.	.
2E	2e	.	2g	.
2D	[2f	.	[2a	.
=7	=7	=7	=7	=7
2F	4f]	0r	2a]	0r
.	4e	.	.	.
2G	1d	.	4g	.
.	.	.	4f	.
1A	.	.	1e	.
.	2c#	.	.	.
=8	=8	=8	=8	=8
2r	2d	1d	2.f	2r
2.d	2.f	.	.	1a
.	.	.	4g	.
.	.	1f	1a	.
4c	4e	.	.	.
4A	4c	.	.	[2cc
4B	4d	.	.	.
=9	=9	=9	=9	=9
2c	4e	2e	1g	2cc]
.	4f	.	.	.
2G	2g	2d	.	2b
2F	2c	2f	1r	2a
2E	2e	2g	.	2cc
=10	=10	=10	=10	=10
2D	2A	1a	0r	2dd
2A	2c	.	.	1ee
2E	2B	2g	.	.
2F	2A	[2a	.	2dd
=11	=11	=11	=11	=11
1E	1B	2a]	2r	1ee
.	.	2g	2e	.
2r	1r	1a	2f	2dd
2A	.	.	[2e	[2ee
=12	=12	=12	=12	=12
1c	2r	0r	4e]	2ee]
.	.	.	4f	.
.	2e	.	4g	2r
.	.	.	4a	.
2B	2g	.	2b	1r
2A	2f	.	[2cc	.
=13	=13	=13	=13	=13
2.c	2e	2r	4cc]	1r
.	.	.	4b	.
.	2A	2a	1a	.
4d	.	.	.	.
1e	1r	2cc	.	2ee
.	.	2b	2g	2gg
=14	=14	=14	=14	=14
1A	2r	1a	1a	2ff
.	2A	.	.	1ee
1r	2c	1g	1r	.
.	2B	.	.	[2dd
=15	=15	=15	=15	=15
0r	4A	2f	1a	2dd]
.	4B	.	.	.
.	4c	2e	.	2cc
.	4A	.	.	.
.	4B	4d	2g	2b
.	4c	4e	.	.
.	2d	4f	2f	4a
.	.	4g	.	4b
=16	=16	=16	=16	=16
2r	1A	1a	2e	4cc
.	.	.	.	4dd
2A	.	.	1c	1ee
2c	2e	2g	.	.
2B	2g	2r	2d	2dd
=17	=17	=17	=17	=17
4A	2f	0r	2a	0r
4B	.	.	.	.
4c	4e	.	4g	.
4d	4d	.	4f	.
2e	4c	.	1g	.
.	4d	.	.	.
2c	[2e	.	.	.
=18	=18	=18	=18	=18
1d	2e]	2r	2.f	1r
.	1d	2d	.	.
.	.	.	4g	.
1A	.	2f	1a	2a
.	2c	2e	.	2cc
=19	=19	=19	=19	=19
1D	1.f	4d	0r	2b
.	.	4e	.	.
.	.	4f	.	4a
.	.	4g	.	4b
2r	.	1a	.	4cc
.	.	.	.	4dd
2A	4e	.	.	[2ee
.	4d	.	.	.
=20	=20	=20	=20	=20
2c	4e	1g	0r	2ee]
.	4f	.	.	.
2B	2g	.	.	1dd
1A	2.a	2f	.	.
.	.	2e	.	2cc
.	4g	.	.	.
=21	=21	=21	=21	=21
4D	1f	1d	1r	2b
4E	.	.	.	.
4F	.	.	.	1a
4G	.	.	.	.
2A	2e	2c#	2r	.
2B-	2d	[2d	2d	2g
=22	=22	=22	=22	=22
1A	2r	2d]	2f	[0a
.	2e	2c#	2e	.
2r	2.f	1d	4d	.
.	.	.	4e	.
2D	.	.	4f	.
.	4e	.	4g	.
=23	=23	=23	=23	=23
2.F	2d	2r	2a	0a]
.	2c	2A	2.f	.
4E	.	.	.	.
2D	2d	2f	.	.
.	.	.	4g	.
2C#	2e	2e	2a	.
=24	=24	=24	=24	=24
0D	0A	4d	2f	[0a
.	.	4e	.	.
.	.	4f	2d	.
.	.	4g	.	.
.	.	2a	1f	.
.	.	[2d	.	.
=25	=25	=25	=25	=25
0A	0A	2d]	0e	0a]
.	.	4c#	.	.
.	.	4B	.	.
.	.	1c#	.	.
=26	=26	=26	=26	=26
1A	1r	0r	0r	0r
1B	1d	.	.	.
=27	=27	=27	=27	=27
1c	1e	0r	0r	0r
2.d	1f	.	.	.
4c	.	.	.	.
=28	=28	=28	=28	=28
4B	2.g	0r	0r	0r
4A	.	.	.	.
2G	.	.	.	.
.	4f	.	.	.
2.c	4e	.	.	.
.	4d	.	.	.
.	2e	.	.	.
4B	.	.	.	.
=29	=29	=29	=29	=29
4A	2c	0r	0r	0r
4G	.	.	.	.
4F	2.f	.	.	.
4E	.	.	.	.
2D	.	.	.	.
.	4e	.	.	.
[2G	4d	.	.	.
.	4c	.	.	.
=30	=30	=30	=30	=30
2G]	4B	0r	1d	0r
.	4c	.	.	.
2F#	1d	.	.	.
2G	.	.	1e	.
2A	2c#	.	.	.
=31	=31	=31	=31	=31
2D	1d	1r	2.f	0r
1d	.	.	.	.
.	.	.	4g	.
.	1A	1e	[1a	.
2c#	.	.	.	.
=32	=32	=32	=32	=32
1d	2r	1f	2a]	1a
.	2d	.	2.d	.
1r	2G	1g	.	1b
.	.	.	4c	.
.	2B	.	2d	.
=33	=33	=33	=33	=33
1r	1A	2.a	2e	1cc
.	.	.	1a	.
.	.	4g	.	.
1d	1r	4f	.	2.dd
.	.	4e	.	.
.	.	2f	2a	.
.	.	.	.	4cc
=34	=34	=34	=34	=34
1G	0r	2d	2.g	4b
.	.	.	.	4a
.	.	2.g	.	2b
.	.	.	4f	.
2.c	.	.	4e	2g
.	.	4f	4d	.
.	.	4e	2c	[2cc
4B	.	4d	.	.
=35	=35	=35	=35	=35
4A	0r	2c	2e	4cc]
4G	.	.	.	4b-
4F	.	2c	2.f	4a
4E	.	.	.	4g
1D	.	4d	.	2f
.	.	4c	4e	.
.	.	4B-	4d	2f
.	.	4A	4c	.
=36	=36	=36	=36	=36
2r	1r	1B-	1d	4g
.	.	.	.	4f
1d	.	.	.	4e
.	.	.	.	4d
.	2r	1A	1a	1e
2c#	2e	.	.	.
=37	=37	=37	=37	=37
2.d	1f	0r	2r	1d
.	.	.	1d	.
4c	.	.	.	.
2B-	1g	.	.	1r
4c	.	.	2e	.
4B-	.	.	.	.
=38	=38	=38	=38	=38
4A	2.a	1r	2.f	0r
4G	.	.	.	.
4F	.	.	.	.
4E	4g	.	4g	.
2D	4f	1d	2a	.
.	4e	.	.	.
2F	[2d	.	2f	.
=39	=39	=39	=39	=39
1E	4d]	1e	2g	1g
.	4c#	.	.	.
.	4c#	.	2G	.
.	4B	.	.	.
1D	1d	1f	2r	1a
.	.	.	[2d	.
=40	=40	=40	=40	=40
1G	0r	1g	2d]	1b
.	.	.	1e	.
1A	.	1r	.	1cc
.	.	.	2f	.
=41	=41	=41	=41	=41
1B	1d	1r	2.g	0r
.	.	.	4f	.
2.c	1e	1g	4e	.
.	.	.	4d	.
.	.	.	[2c	.
4B	.	.	.	.
=42	=42	=42	=42	=42
4A	2f	1a	2c]	1cc
4G	.	.	.	.
2A	2e	.	2c	.
1G	2.g	1b	4B	1dd
.	.	.	4G	.
.	.	.	[2g	.
.	4f	.	.	.
=43	=43	=43	=43	=43
2c	4e	2.cc	2g]	1ee
.	4d	.	.	.
2A	2c	.	1a	.
.	.	4b	.	.
1d	2d	4a	.	2.ff
.	.	4g	.	.
.	[2f	[2a	2d	.
.	.	.	.	4ee
=44	=44	=44	=44	=44
0r	4f]	4a]	1d	4dd
.	4e	4g	.	4cc
.	4d	4f	.	2.dd
.	4c	4e	.	.
.	4B	1d	1r	.
.	4A	.	.	4cc
.	[2G	.	.	4b
.	.	.	.	4a
=45	=45	=45	=45	=45
0r	2G]	1e	1r	1g
.	1g	.	.	.
.	.	1d	2r	1a
.	2f#	.	[2d	.
=46	=46	=46	=46	=46
1G	1g	0r	2d]	1g
.	.	.	1e	.
1A	1c	.	.	1r
.	.	.	2f	.
=47	=47	=47	=47	=47
2B	2d	0r	2.g	0r
2.c	2e	.	.	.
.	.	.	4f	.
.	2.A	.	4e	.
4B	.	.	4d	.
4A	.	.	[2e	.
4G	4B	.	.	.
=48	=48	=48	=48	=48
2.A	1.c	0r	4e]	0r
.	.	.	4d	.
.	.	.	4c	.
4G	.	.	4B	.
4F	.	.	2A	.
4E	.	.	.	.
2D	2d	.	[2a	.
=49	=49	=49	=49	=49
1E	1B	1e	2a]	1r
.	.	.	2g	.
1D	2.d	1f	2a	1a
.	.	.	[2d	.
.	4c	.	.	.
=50	=50	=50	=50	=50
1G	1B	1g	2d]	1b
.	.	.	2d	.
2.F	1A	2.a	2.f	1cc
4E	.	4g	4g	.
=51	=51	=51	=51	=51
2D	2r	4f	2a	2.dd
.	.	4e	.	.
2.G	2B	1d	2g	.
.	.	.	.	4cc
.	2B	.	1g	4b
4F	.	.	.	4a
4E	[2c	[2e	.	[2g
4D	.	.	.	.
=52	=52	=52	=52	=52
2C	4c]	4e]	1e	2g]
.	4B-	4d	.	.
1c	4A	4c	.	2.a
.	4G	4B-	.	.
.	2F	2A	1f	.
.	.	.	.	4g
2A	[2f	[2a	.	4f
.	.	.	.	4e
=53	=53	=53	=53	=53
1B-	2f]	2a]	1r	2d
.	2d	2g	.	1dd
1A	1e	[1a	2r	.
.	.	.	2e	2cc#
=54	=54	=54	=54	=54
2D	[0d	2a]	2.f	[0dd
2.d	.	2d	.	.
.	.	.	4g	.
.	.	1f	2a	.
4c	.	.	.	.
4B-	.	.	[2b-	.
4A	.	.	.	.
=55	=55	=55	=55	=55
2G	1d_	2g	2b-]	1dd_
2F#	.	2a	2a	.
1G	1d_	1b-	1g	1dd_
=56	=56	=56	=56	=56
0D	0d]	0a	0f#	0dd]
=57	=57	=57	=57	=57
1r	0r	1r	2.d	0r
.	.	.	4e	.
2r	.	2.d	4f	.
.	.	.	4g	.
[2D	.	.	[2a	.
.	.	4e	.	.
=58	=58	=58	=58	=58
4D]	0r	4f	2a]	0r
4E	.	4g	.	.
4F	.	1a	2f	.
4G	.	.	.	.
2.A	.	.	2e	.
.	.	2f	2a	.
4B	.	.	.	.
=59	=59	=59	=59	=59
2c	0r	2e	2g	0r
2d	.	2a	2f	.
1G	.	2g	2e	.
.	.	2f	[2d	.
=60	=60	=60	=60	=60
1A	0r	1e	2d]	1r
.	.	.	2c	.
4D	.	2d	1f	2.a
4E	.	.	.	.
4F	.	[2a	.	.
4G	.	.	.	4b
=61	=61	=61	=61	=61
2.A	2r	4a]	0e	4cc
.	.	4b	.	4dd
.	2.A	2.cc	.	1ee
4B	.	.	.	.
1c	.	.	.	.
.	4B	4b	.	.
.	4c	[2a	.	2cc
.	4d	.	.	.
=62	=62	=62	=62	=62
2r	1e	2a]	0r	2b
4C	.	4g	.	1ee
4D	.	4f	.	.
4E	2c	1g	.	.
4F	.	.	.	.
2G	2B	.	.	2dd
=63	=63	=63	=63	=63
4C	1e	1.g	0r	2cc
4D	.	.	.	.
4E	.	.	.	4b
4F	.	.	.	4a
2G	2d	.	.	2b
2A	2c	2e	.	[2a
=64	=64	=64	=64	=64
1E	4B	0e	1r	2a]
.	4A	.	.	.
.	2B	.	.	2g#
1r	1A	.	2r	2a
.	.	.	2a	2r
=65	=65	=65	=65	=65
2r	2G#	1e	2b	0r
1A	2A	.	1cc	.
.	1r	2f	.	.
2B	.	[2g	2b	.
=66	=66	=66	=66	=66
2c	0r	2g]	2g	0r
2F	.	2f	2a	.
1G	.	2d	[1b-	.
.	.	2e	.	.
=67	=67	=67	=67	=67
2D	0r	1f	2b-]	0r
2F	.	.	2a	.
2C	.	2e	2g	.
2D	.	[2d	2f	.
=68	=68	=68	=68	=68
1A	0r	2d]	1e	1r
.	.	2c	.	.
1D	.	1f	2d	1a
.	.	.	2f	.
=69	=69	=69	=69	=69
1r	2r	2e	2g	2b
.	1A	2e	1a	1cc
2r	.	2f	.	.
[2E	2B	[2g	4g	2b
.	.	.	4f	.
=70	=70	=70	=70	=70
2E]	1c	2g]	2e	2g
2F	.	2f	2c	2a
2G	2B	2d	1g	2.b
2E	2G	2e	.	.
.	.	.	.	4cc
=71	=71	=71	=71	=71
2F#	2A	4d	2r	1dd
.	.	4c	.	.
1G	2.B	4B	2d	.
.	.	4A	.	.
.	.	2G	2e	2b
.	4c	.	.	.
4F	[2d	2A	[2f	[2a
4E	.	.	.	.
=72	=72	=72	=72	=72
1D	2d]	1d	2f]	2a]
.	2B-	.	2d	1dd
1r	1A	2r	1e	.
.	.	[2a	.	2cc#
=73	=73	=73	=73	=73
2r	1d	2a]	2f	1dd
2G	.	2b-	2g	.
2A	2c#	2a	2e	1r
[2B-	[2d	2f	4d	.
.	.	.	4c	.
=74	=74	=74	=74	=74
2B-]	2d]	2g	4d	0r
.	.	.	4e	.
2A	2r	1a	1f	.
2F	1r	.	.	.
2G	.	4g	4e	.
.	.	4f	4d	.
=75	=75	=75	=75	=75
1A	0r	2e	4c	1r
.	.	.	4d	.
.	.	1cc	1e	.
1G	.	.	.	2r
.	.	2b-	[2d	[2dd
=76	=76	=76	=76	=76
2F	1r	2a	4d]	2dd]
.	.	.	4A	.
2E	.	2g	1c	2ee
1D	1d	1f	.	1ff
.	.	.	2B	.
=77	=77	=77	=77	=77
2C	2e	2r	1.c	2ee
1F	1f	1a	.	2cc
.	.	.	.	2dd
2G	2e	2b	2B	[2ee
=78	=78	=78	=78	=78
2A	2c	2cc	1A	2ee]
2F	2d	1a	.	2dd
2.E	1e	.	1r	2cc
.	.	[2g	.	[2b
4F	.	.	.	.
=79	=79	=79	=79	=79
2G	2d	2g]	2r	2b]
2A	2c	2f	2a	1a
1E	1B	[1e	1b	.
.	.	.	.	2g#
=80	=80	=80	=80	=80
1A	[0A	2e]	2.cc	1a
.	.	2A	.	.
.	.	.	4b	.
2F	.	2c	4a	2r
.	.	.	4g	.
2D	.	[2d	2f	2dd
=81	=81	=81	=81	=81
1A	0A]	2d]	1e	1ee
.	.	2c#	.	.
2.D	.	4d	2.a	2.ff
.	.	4e	.	.
.	.	4f	.	.
4E	.	4g	4g	4ee
=82	=82	=82	=82	=82
4F	[0A	0a	2f	2dd
4G	.	.	.	.
2A	.	.	2e	2cc#
1D	.	.	1f	1dd
=83	=83	=83	=83	=83
0A	0A]	0a	0e	0cc#
==	==	==	==	==
*-	*-	*-	*-	*-
!!!CDT: 1525/^1526/-1594/2/2
!!!OCY: Italia
!!!AGN: Mass (Canonic)
!!!AST: renaissance, vocal
!!!ASW: Antiphon
!!!PWK: Masses, Book 9
!!!RNB: Cadence finals: D
!!!YOR: Le Opere Complete, v. 25, p. 93
!!!YOO: Rome, Italy: Fratelli Scalera
!!!END: 1992//
!!!EED: John Miller
!!!YEC: Copyright 2000, John Miller
!!!YEN: United States of America
!!!YEM: Rights to all derivative electronic formats reserved.
!!!YEM: Refer to licensing agreement for further details.
!!!YEM: This file must be accompanied by the licensing agreement.
!!!YEM: A copy of the licensing agreement may be found at http://www.music-cog.ohio-state.edu/HumdrumDatabases/Palestrina/license.txt
!!!EMD: converted to Humdrum by Bret Aarden
